src/assets/images/call-icon.svg

<svg width="34" height="47" viewBox="0 0 34 47" fill="none" xmlns="http://www.w3.org/2000/svg">
<g clip-path="url(#clip0_0_2772)">
<path d="M6.33939 1.43146L8.81079 0.641347C11.1283 -0.0982361 13.6043 1.09842 14.5965 3.4366L16.5718 8.0946C17.4308 10.1227 16.9531 12.5091 15.3912 13.9929L11.0387 18.1226C11.3075 20.594 12.1389 23.0264 13.5308 25.4197C14.8526 27.7352 16.6255 29.762 18.7446 31.38L23.9722 29.6344C25.9521 28.9752 28.1112 29.7355 29.3239 31.5201L32.1559 35.6774C33.5685 37.7537 33.3135 40.6156 31.561 42.375L29.6845 44.2607C27.8149 46.1372 25.1436 46.8194 22.6745 46.0476C16.8406 44.2285 11.482 38.8287 6.58974 29.848C1.69058 20.8536 -0.0389445 13.2189 1.40347 6.95307C2.00984 4.31629 3.88636 2.21468 6.33939 1.43146Z" fill="white"/>
</g>
<defs>
<clipPath id="clip0_0_2772">
<rect width="33.0745" height="46.3043" fill="white" transform="translate(0.615234 0.239502)"/>
</clipPath>
</defs>
</svg>

<svg width="34" height="47" fill="none" xmlns="http://www.w3.org/2000/svg">
  <g clip-path="url(#a)">
    <path d="m6.34 1.431 2.47-.79c2.318-.74 4.794.457 5.787 2.796l1.975 4.658c.859 2.028.381 4.414-1.18 5.898l-4.353 4.13c.268 2.471 1.1 4.903 2.492 7.297a19.93 19.93 0 0 0 5.214 5.96l5.227-1.746c1.98-.659 4.14.101 5.352 1.886l2.832 4.157c1.413 2.077 1.157 4.939-.595 6.698l-1.877 1.886c-1.87 1.876-4.54 2.558-7.01 1.787-5.833-1.82-11.192-7.22-16.084-16.2-4.9-8.994-6.629-16.63-5.187-22.895.607-2.637 2.483-4.738 4.936-5.522Z" fill="#fff"/>
  </g>
  <defs>
    <clipPath id="a">
      <path fill="#fff" transform="translate(.615 .24)" d="M0 0h33.075v46.304H0z"/>
    </clipPath>
  </defs>
</svg>
